src/img/move.svg

<svg xmlns="http://www.w3.org/2000/svg" viewBox="0 0 18 18"><style>.st0{fill:#666}</style><path class="st0" d="M13 8c.6 0 1-.4 1-1s-.4-1-1-1-1 .4-1 1 .4 1 1 1zM5 6c-.6 0-1 .4-1 1s.4 1 1 1 1-.4 1-1-.4-1-1-1zm0 4c-.6 0-1 .4-1 1s.4 1 1 1 1-.4 1-1-.4-1-1-1zm8 0c-.6 0-1 .4-1 1s.4 1 1 1 1-.4 1-1-.4-1-1-1zM9 6c-.6 0-1 .4-1 1s.4 1 1 1 1-.4 1-1-.4-1-1-1zm0 4c-.6 0-1 .4-1 1s.4 1 1 1 1-.4 1-1-.4-1-1-1z"/></svg>

<?xml version="1.0" encoding="utf-8"?>
<!-- Generator: Adobe Illustrator 24.0.1, SVG Export Plug-In . SVG Version: 6.00 Build 0)  -->
<svg version="1.1" id="レイヤー_1" focusable="false"
	 xmlns="http://www.w3.org/2000/svg" xmlns:xlink="http://www.w3.org/1999/xlink" x="0px" y="0px" viewBox="0 0 18 18"
	 style="enable-background:new 0 0 18 18;" xml:space="preserve">
<style type="text/css">
	.st0{fill:#666666;}
</style>
<path class="st0" d="M13,8c0.6,0,1-0.4,1-1s-0.4-1-1-1s-1,0.4-1,1S12.4,8,13,8z M5,6C4.4,6,4,6.4,4,7s0.4,1,1,1s1-0.4,1-1S5.6,6,5,6
	z M5,10c-0.6,0-1,0.4-1,1s0.4,1,1,1s1-0.4,1-1S5.6,10,5,10z M13,10c-0.6,0-1,0.4-1,1s0.4,1,1,1s1-0.4,1-1S13.6,10,13,10z M9,6
	C8.4,6,8,6.4,8,7s0.4,1,1,1s1-0.4,1-1S9.6,6,9,6z M9,10c-0.6,0-1,0.4-1,1s0.4,1,1,1s1-0.4,1-1S9.6,10,9,10z"/>
</svg>
